X: 2
T: the Duke of Fife's Welcome to Deeside variation
C: J. Scott Skinner
Z: 2019 John Chambers <jc:trillian.mit.edu>
S: BSFC XIV-25; Tune Book p.2
M: 4/4
L: 1/16
O: Scotland
R: March
K: A
E2 "C"|\
"A"EDCE AA,Ac "E"BAGB "A"AA,Ac | "D"dcdf "A"ecAa ecAc "E"BAGF | \
"A"EDCE AA,Ac "E"BAGB "A"AA,Ac | "D"defa "E"ecdB "A"A4- [A2A,2] :| 
cd "D1"|\
"A"ecdB Aaga "D"fadf "A"eace | "D"dcdf "A"ecAa ecAc "E"BBcd | \
"A"(3(edc) (3(dcB) Aaga "D"fadf "A"eace | "D"defa "E"ecdB "A"{G}A4- [A2A,2] |]
cd "D2"|\
"A"ecdB Aaga "D"fadf "A"eace | "D"dcdf "A"ecAa ecAc "E"BAGF | \
"A"EDCE AA,Ac "E"BAGB "A"AA,Ac | "D"defa "E"ecdB "G"A4- [A2A,2] |] 
